apps/statesvisited/state-images/NC.svg

<svg height="635" width="1182" xmlns="http://www.w3.org/2000/svg"><path d="m793.03402 346.26284-17.6389 2.51984-5.8796-6.29961s-15.539 0-20.1587 2.51985c-4.6197 2.51984-6.2996 2.93981-9.2394 3.77976-2.9398.83994-6.2996 2.93981-6.2996 2.93981l-19.3188 3.35979s-2.0999-5.87963 3.3598-10.49934c5.4596-4.61971 12.5992-8.39947 14.2791-10.07936 1.6799-1.6799 1.6799-5.45966 5.4596-7.55953 3.7798-2.09986 7.1396 1.6799 9.6594-2.09986 2.5199-3.77977 6.2996-10.07937 6.2996-10.07937s18.8988-2.09987 26.8783-3.35979 65.9359-13.43915 65.9359-13.43915l1.6799-2.93982s9.6594 13.01918 10.9193 15.959c1.2599 2.93981 3.7797 11.75926-2.0999 15.95899-5.8796 4.19974-13.8591 13.43916-16.379 13.85913-2.5198.41997-8.3994 3.77976-9.2394 6.71958-.8399 2.93981-2.5198 11.33928-5.0397 12.5992-2.5198 1.25992-7.9795 3.77976-7.9795 3.77976s-9.6593-.41997-12.5992-4.6197c-2.9398-4.19974-11.7592-12.17924-12.5992-13.01918z" fill="#ed553b" fill-rule="evenodd" opacity=".9" stroke="#000"/></svg>

<?xml version="1.0" encoding="UTF-8" standalone="no"?>
<!-- Created with Inkscape (http://www.inkscape.org/) -->
<svg
   xmlns:dc="http://purl.org/dc/elements/1.1/"
   xmlns:cc="http://web.resource.org/cc/"
   xmlns:rdf="http://www.w3.org/1999/02/22-rdf-syntax-ns#"
   xmlns:svg="http://www.w3.org/2000/svg"
   xmlns="http://www.w3.org/2000/svg"
   xmlns:xlink="http://www.w3.org/1999/xlink"
   xmlns:sodipodi="http://sodipodi.sourceforge.net/DTD/sodipodi-0.dtd"
   xmlns:inkscape="http://www.inkscape.org/namespaces/inkscape"
   id="svg1923"
   sodipodi:version="0.32"
   inkscape:version="0.44"
   width="1182"
   height="635"
   version="1.0"
   sodipodi:docbase="/Users/amyshore/Desktop"
   sodipodi:docname="usa.svg">
  <metadata
     id="metadata1928">
    <rdf:RDF>
      <cc:Work
         rdf:about="">
        <dc:format>image/svg+xml</dc:format>
        <dc:type
           rdf:resource="http://purl.org/dc/dcmitype/StillImage" />
      </cc:Work>
    </rdf:RDF>
  </metadata>
  <defs
     id="defs1926" />
  <sodipodi:namedview
     inkscape:window-height="752"
     inkscape:window-width="1280"
     inkscape:pageshadow="2"
     inkscape:pageopacity="0.0"
     guidetolerance="10.0"
     gridtolerance="10.0"
     objecttolerance="10.0"
     borderopacity="1.0"
     bordercolor="#666666"
     pagecolor="#ffffff"
     id="base"
     inkscape:zoom="0.59527559"
     inkscape:cx="775.234"
     inkscape:cy="319.32597"
     inkscape:window-x="0"
     inkscape:window-y="22"
     inkscape:current-layer="layer2" />
  <g
     inkscape:groupmode="layer"
     id="layer1"
     inkscape:label="bg"
     style="opacity:1;display:none"
     sodipodi:insensitive="true">
    <image
       xlink:href="ElectoralCollege1996-Large.png"
       sodipodi:absref="/Users/amyshore/Desktop/ElectoralCollege1996-Large.png"
       width="1182"
       height="635"
       id="image1930"
       x="-1.3571358"
       y="1.6798911" />
  </g>
  <g
     inkscape:groupmode="layer"
     id="layer2"
     inkscape:label="vector"
     style="opacity:0.9;display:inline"> <path style="fill:#ed553b;fill-opacity:1;fill-rule:evenodd;stroke:black;stroke-width:1px;stroke-linecap:butt;stroke-linejoin:miter;stroke-opacity:1" d="M 793.03402,346.26284 L 775.39512,348.78268 L 769.51552,342.48307 C 769.51552,342.48307 753.97652,342.48307 749.35682,345.00292 C 744.73712,347.52276 743.05722,347.94273 740.11742,348.78268 C 737.17762,349.62262 733.81782,351.72249 733.81782,351.72249 L 714.49902,355.08228 C 714.49902,355.08228 712.39912,349.20265 717.85882,344.58294 C 723.31842,339.96323 730.45802,336.18347 732.13792,334.50358 C 733.81782,332.82368 733.81782,329.04392 737.59752,326.94405 C 741.37732,324.84419 744.73712,328.62395 747.25692,324.84419 C 749.77682,321.06442 753.55652,314.76482 753.55652,314.76482 C 753.55652,314.76482 772.45532,312.66495 780.43482,311.40503 C 788.41432,310.14511 846.37072,297.96588 846.37072,297.96588 L 848.05062,295.02606 C 848.05062,295.02606 857.71002,308.04524 858.96992,310.98506 C 860.22982,313.92487 862.74962,322.74432 856.87002,326.94405 C 850.99042,331.14379 843.01092,340.38321 840.49102,340.80318 C 837.97122,341.22315 832.09162,344.58294 831.25162,347.52276 C 830.41172,350.46257 828.73182,358.86204 826.21192,360.12196 C 823.69212,361.38188 818.23242,363.90172 818.23242,363.90172 C 818.23242,363.90172 808.57312,363.48175 805.63322,359.28202 C 802.69342,355.08228 793.87402,347.10278 793.03402,346.26284 z " id="path7256" />   </g>
</svg>
